img/icon_link.svg

<svg width="12" height="13" viewBox="0 0 12 13" fill="none" xmlns="http://www.w3.org/2000/svg">
<path d="M5.06649 7.16539C4.91469 7.31892 4.66718 7.32032 4.51366 7.16852C4.36013 7.01673 4.35873 6.76921 4.51053 6.61569L9.45344 1.96337C9.60523 1.80985 9.85274 1.80845 10.0063 1.96025C10.1598 2.11204 10.1612 2.35955 10.0094 2.51307L5.06649 7.16539Z" fill="#FF9090"/>
<path d="M10.2671 5.28077C10.2683 5.49667 10.0943 5.67268 9.87842 5.6739C9.66253 5.67512 9.48652 5.50109 9.4853 5.2852L9.46742 2.12541C9.46619 1.90951 9.64022 1.73351 9.85611 1.73228C10.072 1.73106 10.248 1.90509 10.2492 2.12098L10.2671 5.28077Z" fill="#FF9090"/>
<path d="M6.69715 1.75098C6.48125 1.75221 6.30723 1.92821 6.30845 2.1441C6.30967 2.36 6.48568 2.53402 6.70157 2.5328L9.82635 2.51512C10.0422 2.5139 10.2163 2.33789 10.215 2.122C10.2138 1.9061 10.0378 1.73208 9.82192 1.7333L6.69715 1.75098Z" fill="#FF9090"/>
<path d="M10.224 9.63192V8.41383C10.2029 7.88394 9.44612 7.88434 9.42521 8.41383V9.63192C9.42521 10.5128 8.70857 11.2294 7.82772 11.2294H2.39624C1.51538 11.2294 0.798747 10.5128 0.798747 9.63192V4.20044C0.798747 3.31958 1.51538 2.60295 2.39624 2.60295H3.65427C4.18415 2.58186 4.18375 1.82511 3.65427 1.8042H2.39624C1.07495 1.8042 0 2.87915 0 4.20044V9.63192C0 10.9532 1.07495 12.0282 2.39624 12.0282H7.82772C9.149 12.0282 10.224 10.9532 10.224 9.63192Z" fill="#FF9090"/>
</svg>

<svg width="12" height="13" fill="none" xmlns="http://www.w3.org/2000/svg"><path d="M5.066 7.165a.39.39 0 11-.555-.55l4.942-4.652a.391.391 0 01.556.55L5.066 7.165z" fill="#FF9090"/><path d="M10.267 5.28a.39.39 0 01-.782.005l-.018-3.16a.39.39 0 11.782-.004l.018 3.16z" fill="#FF9090"/><path d="M6.697 1.751a.39.39 0 00.005.782l3.124-.018a.39.39 0 10-.004-.782l-3.125.018zm3.527 7.881V8.414c-.021-.53-.778-.53-.799 0v1.218a1.6 1.6 0 01-1.597 1.597H2.396A1.6 1.6 0 01.8 9.632V4.2a1.6 1.6 0 011.597-1.597h1.258c.53-.021.53-.778 0-.799H2.396A2.399 2.399 0 000 4.2v5.432a2.399 2.399 0 002.396 2.396h5.432a2.399 2.399 0 002.396-2.396z" fill="#FF9090"/></svg>
